balenciaga.svg

<svg viewBox="0 0 24 24" xmlns="http://www.w3.org/2000/svg"><path d="M1.58402 12.2749C0.236875 12.2617 0.212625 10.714 0.581787 9.58147L0.617581 9.58147C0.713043 9.67391 0.808506 9.7664 0.903968 9.85889C1.16403 10.119 1.48861 10.4499 1.63775 10.8074C1.64072 10.8014 1.64362 10.7955 1.64664 10.7895C1.72886 10.6694 1.77962 10.3935 1.78983 10.2257C1.53969 10.0531 1.28292 9.79897 1.18134 9.48304C1.01964 8.9799 1.1973 8.17471 1.27977 7.66648C1.32598 7.38173 1.25078 7.10531 1.2261 6.87006L1.25292 6.87006C1.78586 7.07697 1.9345 7.57694 2.04934 8.20339C2.10697 8.51762 2.0655 8.86878 2.2104 9.08925C2.21936 9.08333 2.22833 9.07739 2.2373 9.07139C2.30511 8.91733 2.69036 8.39027 2.69365 8.25706C2.64887 8.13475 2.60411 8.01241 2.55941 7.89017C2.41906 7.52947 2.24164 7.04427 2.32676 6.52105C2.45208 5.75058 2.75205 5.13552 2.94417 4.40918C3.14569 4.4732 3.21977 4.8007 3.28422 5.00873C3.52167 5.77528 3.38278 6.5482 3.30215 7.34429C3.59213 7.12242 3.73653 6.73805 4.01799 6.51215C3.86211 6.02296 3.77556 5.15628 3.96434 4.64192C4.10254 4.26517 4.31822 3.9541 4.44758 3.54118L4.79569 2.30036L4.80546 2.30036L4.82338 2.30636C4.88902 2.41073 4.95463 2.51509 5.02023 2.61952C5.16482 2.86304 5.29614 3.15246 5.37822 3.44282C5.6146 4.27907 5.25983 4.9362 5.04713 5.51889C5.0501 5.52778 5.053 5.53675 5.05602 5.54564C5.52166 5.30309 5.71612 4.82096 6.12986 4.52555C6.78528 4.05758 7.73978 3.99816 8.84125 4.0334C8.78708 4.26569 8.5461 4.47213 8.41174 4.64192C7.93633 5.24222 6.7366 6.1923 5.62874 5.64415C5.44779 5.76644 5.02687 6.04084 4.93076 6.22582C4.9427 6.24368 4.95463 6.26156 4.96657 6.27942C5.82921 6.15921 6.9322 6.058 7.55263 6.47629C7.65032 6.54213 7.76933 6.61796 7.80323 6.74474C7.37927 6.88787 6.89993 6.95328 6.41617 7.0401C6.19849 7.05499 5.98072 7.0699 5.76297 7.08479C5.59295 7.08783 5.42291 7.0908 5.25289 7.09375C5.04415 7.06395 4.83524 7.03416 4.62651 7.0043C4.49525 6.96547 4.36398 6.9267 4.23279 6.88794C4.00353 7.19339 3.71085 7.45774 3.49902 7.78284C3.78186 7.74501 4.02973 7.65209 4.28645 7.58597C4.5296 7.52334 4.75467 7.51394 5.02023 7.46961C5.13854 7.44985 5.30567 7.43066 5.43187 7.45175C5.69908 7.49645 6.17159 7.58308 6.112 7.8812C5.94196 7.93493 5.77186 7.98866 5.60191 8.04233C5.13665 8.20036 4.67122 8.35852 4.20589 8.5166C3.80939 8.61718 3.43555 8.54414 3.05157 8.5166C2.93823 8.68657 2.82484 8.85666 2.71151 9.02663C2.53523 9.31497 2.40592 9.6366 2.3178 10.011C3.16817 9.53209 3.8928 8.48643 5.26185 8.98192L5.26185 9.01766C5.11191 9.06425 4.98848 9.1707 4.86814 9.25038C4.33924 9.60041 3.97545 10.1263 3.45426 10.4673C3.2404 10.6073 2.93735 10.7198 2.58625 10.709C2.43749 10.7043 2.27461 10.6653 2.14776 10.691C2.02774 10.9879 1.81655 12.1695 2.0225 12.5166C2.26912 12.348 2.426 11.9855 2.58625 11.7291C2.9782 11.1021 3.44257 10.5194 4.46545 10.5211C4.32826 10.7299 4.19099 10.9387 4.05379 11.1474C3.75263 11.5988 3.52187 12.162 3.09633 12.4897C2.90944 12.6336 2.68601 12.7548 2.46988 12.8656C2.3688 12.9174 2.18172 12.9531 2.12093 13.0445C2.03216 13.1781 2.30573 14.0796 2.38042 14.1631L2.38042 14.1452C2.49079 13.9275 2.60114 13.7097 2.71151 13.492C3.03224 12.9492 3.40658 12.2864 4.13436 12.1586C4.04489 12.4241 3.95537 12.6896 3.8659 12.9551C3.72221 13.5258 3.64038 14.1459 3.43638 14.6732C3.30814 14.9804 3.17979 15.2876 3.05157 15.5949C3.0217 15.7633 3.25519 16.0156 3.30215 16.1496L3.31112 16.1496C3.31162 15.2619 3.80599 13.8875 4.53704 13.8052L4.53704 14.0021C4.52808 14.1541 4.51911 14.3063 4.51021 14.4584C4.44455 14.8473 4.4429 15.2447 4.34012 15.5949C4.25153 15.8967 4.15482 16.1799 4.03593 16.4538C3.96729 16.597 3.89867 16.7402 3.83011 16.8834C4.01282 17.1261 4.12185 17.3759 4.36702 17.5546C4.35041 16.9445 4.39947 16.411 4.54596 15.9349C4.65037 15.6307 4.7548 15.3263 4.85917 15.0221L4.886 15.0221C4.89199 15.0251 4.89794 15.0281 4.90393 15.0311C5.00741 15.3266 5.18413 15.5588 5.27082 15.9259C5.42803 16.5919 5.30479 17.7573 5.21709 18.4047C5.49332 18.6265 5.66226 18.9054 6.0046 19.0758C5.92107 18.867 5.83753 18.6581 5.754 18.4494C5.57931 17.8805 5.57419 16.9264 5.754 16.3555L5.76297 16.3555C5.94663 16.4457 6.16383 16.8223 6.28195 16.9998C6.7628 17.7221 6.99375 18.3912 6.98895 19.5948C7.31525 19.753 7.53175 19.7802 8.00906 19.7649C8.00307 19.7559 7.99705 19.7469 7.99118 19.738C7.31947 19.4447 7.10646 18.017 7.07842 17.0534C7.32654 17.1061 7.57057 17.3227 7.75847 17.4561C8.3262 17.8594 9.18012 18.7501 8.97543 19.8364C9.65623 19.9266 10.0938 20.4305 10.3894 20.9192C10.4913 21.0877 10.6873 21.421 10.5415 21.6619C10.4168 21.7016 10.3011 21.6584 10.2372 21.5635C10.1805 21.4322 10.1239 21.301 10.0672 21.1698C9.90802 20.8895 9.70509 20.6567 9.44088 20.4807C9.36207 20.4283 9.09027 20.2211 8.94865 20.3196C8.8179 20.3795 8.60512 20.7586 8.4565 20.8745C8.04196 21.1975 7.33646 21.4926 6.54151 21.3576C6.30215 21.3171 5.96027 21.3335 5.8345 21.1787C5.91171 20.8707 6.91811 20.3021 7.24846 20.1943C7.16966 20.1228 6.42451 19.8309 6.29091 19.8096C6.18434 19.95 6.00957 20.0313 5.85249 20.1228C5.2676 20.4632 4.45704 20.478 3.72271 20.257C3.49662 20.1889 3.16363 20.1372 3.03369 19.9706C3.07613 19.8291 3.2942 19.7248 3.4095 19.6485C3.89923 19.3244 4.58724 19.2048 5.40505 19.201L5.40505 19.1921C5.36326 19.1474 5.32145 19.1026 5.27971 19.0578C5.13351 18.9385 4.98732 18.8192 4.84118 18.6999C4.70095 18.7626 4.5608 18.8252 4.42056 18.8878C4.14541 18.9892 3.88043 19.0289 3.54361 19.0758C2.90869 19.164 2.21767 18.4998 1.95976 18.1719C1.84933 18.0315 1.6666 17.862 1.63763 17.6529C2.54023 17.3791 3.36947 17.7204 4.07155 17.9124L4.07155 17.9034C3.93682 17.6851 3.66085 17.3024 3.46311 17.1518C3.1425 17.243 2.69624 17.1397 2.45191 17.0713C1.6702 16.8522 1.15804 16.3516 0.778538 15.729C0.692793 15.5882 0.579773 15.421 0.545877 15.2368C1.52846 15.179 2.06809 15.5089 2.64876 15.8633C2.5966 15.7248 2.41427 15.2975 2.30877 15.2368C2.19242 15.2011 2.07605 15.1653 1.95976 15.1295C1.74748 15.0456 1.52778 14.9274 1.35124 14.7984C0.942689 14.4998 0.606225 14.0842 0.411649 13.5724C0.337072 13.301 0.262442 13.0295 0.187954 12.7581C0.125315 12.6 0.0626216 12.4419 9.09495e-13 12.2838C0.696015 12.2727 1.09345 12.6297 1.4318 12.9819C1.5034 13.0624 1.57494 13.1429 1.64652 13.2234C1.65134 12.9179 1.59969 12.5806 1.5839 12.2749L1.58402 12.2749ZM19.2135 2.30036L19.1841 2.30036C18.8409 2.92556 18.3642 3.61019 18.613 4.64192C18.6925 4.97137 18.8477 5.22144 18.953 5.51889C18.95 5.52778 18.947 5.53675 18.9441 5.54564C18.4801 5.29859 18.2847 4.82153 17.8703 4.52555C17.2201 4.06118 16.2565 3.98902 15.1588 4.0334C15.2154 4.26664 15.4531 4.4708 15.5884 4.64192C15.9947 5.15528 16.5244 5.57002 17.2618 5.75148C17.4981 5.80968 17.842 5.82042 18.085 5.76044C18.1835 5.72168 18.2819 5.68291 18.3803 5.64415C18.4609 5.66353 18.9982 6.13276 19.0694 6.2168L19.0694 6.22582C19.0548 6.24558 19.0544 6.25562 19.0336 6.27053C18.7622 6.23769 18.4907 6.20492 18.2193 6.17209C17.6169 6.07561 16.8803 6.19855 16.5101 6.42262C16.3783 6.50242 16.3022 6.61404 16.1969 6.71797L16.1969 6.74474C16.8062 6.96167 18.1211 7.21087 18.9441 7.07584C19.2401 7.02728 19.4987 6.9363 19.7584 6.88794C19.9108 7.00176 20.4066 7.59097 20.4832 7.76496C20.4892 7.77083 20.4952 7.77683 20.5012 7.78284C20.352 7.75 20.2028 7.71718 20.0537 7.68434C19.5816 7.55163 17.9652 7.14054 17.8792 7.87229C18.1417 7.95583 18.4043 8.03929 18.6667 8.12288C19.2077 8.33339 19.6784 8.50089 20.358 8.58821C20.559 8.61403 20.7705 8.53745 20.9396 8.5166C21.2307 8.78708 21.5836 9.53879 21.6824 10.011C20.8529 9.53816 20.0752 8.48176 18.7383 8.98192L18.7383 9.01766C18.8885 9.06677 19.0105 9.1702 19.132 9.25038C19.6616 9.59978 20.0247 10.1261 20.5459 10.4673C20.7474 10.5993 20.9924 10.6619 21.2797 10.709C21.4678 10.7398 21.6936 10.6308 21.8345 10.691C21.9321 10.7561 21.9317 10.9766 21.9597 11.1116C22.048 11.5368 22.0676 12.093 21.9866 12.5166C21.7854 12.4284 21.5383 11.9279 21.4139 11.7291C21.0244 11.1065 20.5558 10.5125 19.5347 10.5211C19.6719 10.7299 19.8092 10.9387 19.9464 11.1474C20.2468 11.5989 20.4785 12.1622 20.9038 12.4897C21.104 12.6438 21.3485 12.7794 21.5839 12.8924C21.6788 12.9379 21.8435 12.9693 21.8881 13.0624C21.9977 13.2911 21.6805 13.9376 21.6376 14.1541C21.6316 14.1572 21.6257 14.1601 21.6197 14.1631C21.5653 13.9852 21.4571 13.8223 21.3692 13.671C21.0139 13.0595 20.6782 12.302 19.8658 12.1586C19.9553 12.4241 20.0447 12.6896 20.1343 12.9551C20.2856 13.5523 20.3748 14.2001 20.5906 14.7447C20.7964 15.2642 21.1395 15.6338 20.698 16.1318L20.698 16.1496C20.6652 15.899 20.6324 15.6485 20.5996 15.398C20.4206 14.6782 20.1427 14.0527 19.49 13.8052L19.4631 13.8052C19.464 14.7876 19.6359 15.6303 19.9195 16.3196C19.9935 16.4994 20.0536 16.7065 20.1701 16.8476C20.1332 17.0829 19.801 17.4314 19.6331 17.5546C19.6353 17.1442 19.6601 16.7268 19.5705 16.3644C19.481 16.0662 19.3915 15.7678 19.302 15.4695C19.2483 15.3205 19.1947 15.1713 19.141 15.0221L19.1051 15.0221C18.9604 15.3015 18.8115 15.5748 18.7293 15.9259C18.5862 16.5381 18.6695 17.8075 18.783 18.3957C18.5905 18.6654 18.3059 18.9254 17.9956 19.0758C18.0403 18.9773 18.085 18.8788 18.1298 18.7805C18.2146 18.5715 18.2775 18.3364 18.3267 18.1004C18.4501 17.5075 18.2964 16.8833 18.2551 16.3644C18.2521 16.3614 18.2491 16.3584 18.2461 16.3555C18.0876 16.4053 17.8336 16.8267 17.7361 16.9729C17.2761 17.6623 16.9868 18.4106 17.0112 19.5858C16.8038 19.7939 16.3771 19.7847 15.9911 19.7649C16.1932 19.5318 16.4409 19.389 16.5727 19.0758C16.7337 18.6932 16.7751 18.2206 16.8591 17.7604C16.8799 17.5456 16.9008 17.3308 16.9217 17.1161L16.9217 17.0534C16.6729 17.1076 16.4305 17.3222 16.2416 17.4561C15.6819 17.8528 14.812 18.7593 15.0246 19.8364C14.3417 19.9356 13.8584 20.4454 13.584 20.9639C13.5316 21.0628 13.286 21.5272 13.4587 21.6619C13.648 21.8095 13.8061 21.4837 13.8524 21.3755C14.0384 20.9411 14.4558 20.3097 15.0425 20.3018C15.2096 20.4842 15.3481 20.7219 15.5437 20.8745C15.9707 21.2076 16.7258 21.5094 17.5571 21.3576C17.7637 21.32 17.9659 21.2736 18.1388 21.2145C18.1477 21.1965 18.1566 21.1787 18.1655 21.1608C17.894 20.6531 17.2195 20.5299 16.7696 20.1943L16.7517 20.1943C17.0679 20.0661 17.3842 19.9378 17.7002 19.8096C17.9152 19.9738 18.132 20.1514 18.3983 20.266C18.9227 20.4915 19.7423 20.4161 20.2775 20.257C20.4474 20.2065 20.9321 20.0928 20.9665 19.9438C20.4095 19.439 19.6812 19.1882 18.5951 19.201L18.5951 19.1921C18.7443 18.9942 18.9952 18.8898 19.1499 18.6999C19.2931 18.7626 19.4362 18.8252 19.5794 18.8879C19.8542 18.9889 20.1196 19.0308 20.4564 19.0758C21.0954 19.1612 21.7794 18.5027 22.0403 18.172C22.1506 18.0321 22.3339 17.8616 22.3624 17.6529C21.525 17.405 20.5787 17.6704 19.9374 17.9125L19.9284 17.9125C20.0476 17.6291 20.3568 17.4663 20.4832 17.1966C20.5967 17.1197 20.8554 17.2012 21.0559 17.1697C21.2438 17.134 21.4318 17.0981 21.6197 17.0624C22.3278 16.8458 23.3116 15.9881 23.4541 15.2369C22.4565 15.1946 21.9515 15.5123 21.3513 15.8633C21.447 15.6343 21.5658 15.4462 21.6734 15.2369C22.4984 15.049 23.2003 14.4836 23.5079 13.7783C23.6371 13.482 23.6931 13.1474 23.7942 12.8208C23.8628 12.6419 23.9314 12.4629 24 12.2839C23.3026 12.2823 22.9222 12.6204 22.5772 12.9729C22.5026 13.0564 22.428 13.14 22.3535 13.2235C22.3503 12.9178 22.4036 12.5809 22.4162 12.2749C23.3759 12.2562 23.7679 11.4689 23.5794 10.4047C23.5287 10.1333 23.478 9.86187 23.4273 9.59044C23.4153 9.58741 23.4034 9.58444 23.3915 9.58147C23.1125 9.79121 22.8335 10.1011 22.6309 10.3868C22.5414 10.521 22.4519 10.6553 22.3624 10.7895C22.3594 10.7955 22.3564 10.8014 22.3535 10.8074C22.2991 10.6371 22.2221 10.4328 22.2103 10.2347C22.4233 9.97209 22.693 9.87259 22.8188 9.48304C22.9813 8.97965 22.8019 8.17516 22.7203 7.66648C22.6747 7.38154 22.7494 7.10544 22.7741 6.87006C21.9765 6.96275 22.0009 8.31331 21.8166 9.06242C21.8046 9.07139 21.7927 9.08036 21.7807 9.08925C21.6487 8.88601 21.3734 8.48984 21.3065 8.25706C21.4669 7.76554 21.7914 7.21921 21.6734 6.52105C21.5426 5.7475 21.2315 5.14341 21.0559 4.40918C20.8544 4.47132 20.7803 4.80215 20.7159 5.00873C20.4854 5.74858 20.619 6.56935 20.698 7.34429C20.5464 7.23108 20.0961 6.71045 20.0179 6.53898C19.9611 6.48626 20.0313 6.24987 20.0537 6.1363C20.1163 5.81877 20.1839 5.38174 20.1163 5.00873C20.0297 4.53092 19.8128 4.25557 19.66 3.86338C19.4671 3.36862 19.3789 2.825 19.2135 2.30036L19.2135 2.30036ZM11.7048 9.59933L11.7048 16.257C10.8965 16.254 10.088 16.251 9.27975 16.248C8.77144 16.2481 8.22277 16.2794 7.86587 16.1318C7.17263 15.8449 6.56506 14.8044 6.89046 13.7783C7.04495 13.2912 7.35426 13.0114 7.69583 12.7135L7.69583 12.7045C7.56035 12.6565 7.44795 12.5312 7.36475 12.427C6.86806 11.8055 6.80372 10.8963 7.35579 10.2705C8.16065 9.3581 10.0909 9.58267 11.7048 9.59933ZM12.2953 16.257L12.2953 9.59933C13.6167 9.58008 15.3289 9.38998 16.2238 9.93043C16.7693 10.2599 17.2874 11.0362 16.9486 11.926C16.8104 12.289 16.5828 12.4925 16.3043 12.7135C16.3103 12.7164 16.3162 12.7194 16.3222 12.7224C16.5632 12.9798 16.847 13.1611 17.0023 13.5098C17.0848 13.6951 17.1401 13.898 17.1812 14.1273C17.2496 14.5078 17.1217 14.9055 17.0202 15.1653C16.8183 15.6819 16.4949 16.027 15.9463 16.1944C15.6065 16.298 15.0802 16.2481 14.6578 16.248C13.8703 16.251 13.0828 16.254 12.2953 16.257ZM9.57503 10.4406C9.40803 10.4584 9.24091 10.4763 9.07392 10.4942C8.62615 10.5997 8.04283 10.9365 8.17012 11.559C8.37026 12.5383 9.78174 12.3567 10.6757 12.1407L10.6757 10.5479C10.3317 10.499 9.98428 10.4426 9.57503 10.4406ZM14.1925 10.4406C14.097 10.4464 14.0015 10.4524 13.9061 10.4584C13.7122 10.4882 13.5183 10.518 13.3245 10.5479L13.3245 11.7202C13.3245 11.8226 13.2882 12.0788 13.3423 12.1407C13.5165 12.2309 13.7527 12.2246 13.9687 12.266C14.7589 12.4175 15.6165 12.2735 15.8032 11.6665C15.8654 11.4642 15.8177 11.2345 15.7495 11.0759C15.5298 10.5652 14.9264 10.4353 14.1925 10.4406ZM9.52138 13.2145C9.3961 13.2235 9.27078 13.2324 9.14552 13.2414C8.7016 13.3281 8.34766 13.4554 8.15218 13.7873C8.08267 13.9053 8.0232 14.1297 8.04486 14.2973C8.20656 15.5505 9.55123 15.3169 10.6757 15.1385L10.6757 13.313C10.3146 13.2656 9.95014 13.2164 9.52138 13.2145ZM14.1925 13.2145C14.1178 13.2176 14.0433 13.2205 13.9687 13.2235C13.7539 13.2533 13.5392 13.2832 13.3245 13.313L13.3245 15.1385C14.1931 15.2725 15.4155 15.4803 15.8389 14.7716C15.9389 14.6044 15.9906 14.321 15.9374 14.0826C15.7734 13.3475 15.0926 13.2091 14.1925 13.2145Z" fill="#201e1e"/></svg>

<svg viewBox="0 0 24 24" xmlns="http://www.w3.org/2000/svg"><path d="M1.584 12.275C.237 12.262.213 10.714.582 9.58h.036l.286.278c.26.26.585.59.734.948l.009-.018c.082-.12.133-.396.143-.563-.25-.173-.507-.427-.609-.743-.161-.503.016-1.308.099-1.817.046-.284-.03-.56-.054-.796h.027c.533.207.682.707.796 1.333.058.315.017.666.161.886l.027-.018c.068-.154.453-.68.457-.814l-.135-.367c-.14-.36-.317-.846-.232-1.369.125-.77.425-1.385.617-2.112.202.064.276.392.34.6.238.766.099 1.54.018 2.335.29-.222.435-.606.716-.832-.156-.489-.242-1.356-.054-1.87.139-.377.354-.688.484-1.1L4.796 2.3h.01l.017.006.197.314c.145.243.276.532.358.823.237.836-.118 1.493-.33 2.076l.008.027c.466-.243.66-.725 1.074-1.02.655-.468 1.61-.528 2.711-.493-.054.233-.295.44-.43.609-.475.6-1.674 1.55-2.782 1.002-.181.122-.602.397-.698.582l.036.053c.862-.12 1.965-.221 2.586.197.097.066.216.142.25.269-.424.143-.903.208-1.387.295l-.653.045-.51.009-.626-.09-.394-.116c-.23.305-.522.57-.734.895.283-.038.53-.13.787-.197.244-.063.469-.072.734-.116.119-.02.286-.04.412-.018.267.044.74.131.68.43l-.51.16-1.396.475c-.397.1-.77.027-1.154 0l-.34.51a3.31 3.31 0 0 0-.394.984c.85-.479 1.575-1.525 2.944-1.03v.037c-.15.046-.274.153-.394.232-.529.35-.893.876-1.414 1.217-.214.14-.517.253-.868.242-.149-.005-.311-.044-.438-.018-.12.297-.331 1.478-.126 1.826.247-.169.404-.531.564-.788.392-.627.857-1.21 1.88-1.208l-.412.626c-.301.452-.532 1.015-.958 1.343-.187.144-.41.265-.626.376-.101.051-.288.087-.35.178-.088.134.186 1.036.26 1.12v-.019l.332-.653c.32-.543.695-1.206 1.422-1.333l-.268.796c-.144.57-.226 1.19-.43 1.718l-.384.922c-.03.168.203.42.25.555h.01c0-.888.494-2.262 1.225-2.345v.197l-.027.456c-.065.39-.067.787-.17 1.137a7.312 7.312 0 0 1-.304.859l-.206.43c.183.242.292.492.537.67-.017-.61.032-1.143.179-1.62l.313-.912h.027l.018.01c.103.295.28.527.367.894.157.666.034 1.831-.054 2.479.276.221.445.5.788.67l-.251-.626c-.175-.569-.18-1.523 0-2.094h.009c.184.09.4.467.519.645.48.722.712 1.391.707 2.595.326.158.543.185 1.02.17l-.018-.027c-.672-.293-.885-1.721-.913-2.685.249.053.493.27.68.403.568.403 1.422 1.294 1.217 2.38.681.09 1.119.595 1.414 1.083.102.169.298.502.152.743a.26.26 0 0 1-.304-.098l-.17-.394a1.982 1.982 0 0 0-.626-.69c-.079-.052-.35-.259-.492-.16-.131.06-.344.439-.492.555a2.5 2.5 0 0 1-1.915.483c-.24-.04-.582-.024-.707-.18.077-.307 1.083-.876 1.413-.984-.078-.071-.823-.363-.957-.384-.107.14-.281.221-.439.313-.584.34-1.395.355-2.13.134-.225-.068-.558-.12-.688-.286.042-.142.26-.246.376-.323.49-.324 1.177-.443 1.995-.447v-.009l-.125-.134-.439-.358-.42.188c-.276.101-.54.14-.877.188-.635.088-1.326-.576-1.584-.904-.11-.14-.293-.31-.322-.52.902-.273 1.731.068 2.434.26v-.009c-.135-.218-.411-.6-.609-.751-.32.091-.767-.012-1.011-.08-.782-.22-1.294-.72-1.673-1.343-.086-.14-.2-.308-.233-.492.982-.058 1.522.272 2.103.626-.052-.138-.235-.566-.34-.626l-.35-.107a2.71 2.71 0 0 1-1.548-1.557l-.223-.815L0 12.284c.696-.011 1.093.346 1.432.698l.215.241c.004-.305-.047-.642-.063-.948ZM19.214 2.3h-.03c-.343.626-.82 1.31-.571 2.342.08.33.235.58.34.877a2.792 2.792 0 0 0-.009.027c-.464-.247-.66-.724-1.074-1.02-.65-.465-1.614-.537-2.711-.493.056.234.294.438.43.609.406.513.935.928 1.673 1.11.236.058.58.068.823.008l.295-.116c.08.02.618.489.69.573v.009c-.015.02-.016.03-.036.045l-.815-.099c-.602-.096-1.339.027-1.709.25-.132.08-.208.192-.313.296v.027c.61.217 1.924.466 2.747.33.296-.048.555-.139.814-.187.153.114.649.703.725.877l.018.018-.447-.099c-.472-.132-2.089-.543-2.175.188l.788.25c.54.211 1.011.379 1.691.466.201.026.412-.05.582-.071.29.27.644 1.022.742 1.494-.83-.473-1.607-1.53-2.944-1.03v.037c.15.049.273.152.394.232.53.35.893.876 1.414 1.217.201.132.446.195.734.242.188.03.414-.078.554-.018.098.065.098.286.126.42.088.426.108.982.027 1.406-.202-.089-.449-.59-.573-.788-.39-.622-.858-1.216-1.88-1.208l.412.626c.3.452.532 1.015.958 1.343.2.154.445.29.68.402.095.046.26.077.304.17.11.23-.208.876-.25 1.092l-.018.01c-.055-.179-.163-.342-.25-.493-.356-.611-.692-1.369-1.504-1.512l.268.796c.152.597.24 1.245.457 1.79.205.52.549.889.107 1.387v.018l-.098-.752c-.18-.72-.457-1.345-1.11-1.593h-.027c.001.983.173 1.825.456 2.515.075.18.135.386.251.528-.037.235-.369.583-.537.707.002-.41.027-.828-.063-1.19l-.268-.895-.161-.448h-.036c-.145.28-.294.553-.376.904-.143.612-.06 1.882.054 2.47-.193.27-.477.53-.787.68l.134-.296c.085-.209.148-.444.197-.68.123-.593-.03-1.217-.072-1.736l-.009-.009c-.158.05-.412.472-.51.618-.46.69-.75 1.438-.725 2.613-.207.208-.634.199-1.02.179.202-.233.45-.376.582-.69.16-.382.202-.854.286-1.315l.063-.644v-.063c-.25.055-.492.27-.68.403-.56.397-1.43 1.303-1.217 2.38-.683.1-1.167.61-1.441 1.128-.052.099-.298.563-.125.698.189.148.347-.178.393-.287.186-.434.604-1.065 1.19-1.073.168.182.306.42.502.573a2.608 2.608 0 0 0 2.013.483c.207-.038.409-.084.582-.143l.027-.054c-.272-.508-.947-.631-1.396-.967h-.018l.948-.384c.215.164.432.341.698.456.525.226 1.344.15 1.88-.009.17-.05.654-.164.689-.313-.557-.505-1.286-.756-2.372-.743v-.009c.15-.198.4-.302.555-.492l.43.188c.274.1.54.143.876.188.64.085 1.323-.573 1.584-.904.11-.14.294-.31.322-.52-.837-.247-1.783.018-2.425.26h-.009c.12-.283.429-.446.555-.715.114-.077.372.004.573-.027l.564-.108c.708-.216 1.692-1.074 1.834-1.825-.998-.042-1.503.275-2.103.626.096-.229.215-.417.322-.626.825-.188 1.527-.753 1.835-1.459.13-.296.185-.63.286-.957l.206-.537c-.697-.002-1.078.336-1.423.689l-.224.25c-.003-.305.05-.642.063-.948.96-.019 1.352-.806 1.163-1.87l-.152-.815-.035-.009c-.28.21-.558.52-.761.806l-.269.402-.008.018c-.055-.17-.132-.374-.144-.572.213-.263.483-.362.609-.752.162-.503-.017-1.308-.099-1.817-.045-.284.03-.56.054-.796-.797.093-.773 1.443-.957 2.192l-.036.027c-.132-.203-.408-.6-.474-.832.16-.491.484-1.038.366-1.736-.13-.774-.441-1.378-.617-2.112-.202.062-.276.393-.34.6-.23.74-.097 1.56-.018 2.335-.152-.113-.602-.634-.68-.805-.057-.053.013-.29.036-.403.062-.317.13-.754.062-1.127-.086-.478-.303-.753-.456-1.146-.193-.494-.281-1.038-.447-1.563Zm-7.51 7.3v6.657l-2.424-.009c-.509 0-1.057.031-1.414-.116-.693-.287-1.3-1.328-.976-2.354.155-.487.464-.767.806-1.065v-.008c-.136-.049-.248-.174-.331-.278-.497-.621-.561-1.53-.01-2.156.806-.913 2.736-.688 4.35-.672Zm.591 6.657V9.599c1.322-.019 3.034-.209 3.929.331.545.33 1.063 1.106.725 1.996-.139.363-.366.566-.645.787l.018.01c.241.257.525.438.68.787.083.185.138.388.18.617.068.38-.06.778-.162 1.038-.202.517-.525.862-1.074 1.03-.34.103-.866.053-1.288.053l-2.363.009Zm-2.72-5.816-.501.053c-.448.106-1.031.443-.904 1.065.2.98 1.612.798 2.506.582v-1.593c-.344-.049-.692-.105-1.101-.107Zm4.618 0-.287.017-.582.09v1.172c0 .103-.036.359.018.42.175.09.41.085.627.126.79.152 1.648.008 1.834-.6.062-.202.015-.431-.054-.59-.22-.51-.823-.64-1.556-.635ZM9.52 13.214l-.375.027c-.444.087-.798.214-.994.546a.928.928 0 0 0-.107.51c.162 1.253 1.506 1.02 2.63.841v-1.825c-.36-.047-.725-.097-1.154-.099Zm4.671 0-.223.01-.644.089v1.825c.868.135 2.09.342 2.514-.366.1-.168.152-.451.098-.69-.164-.735-.844-.873-1.744-.868Z" fill="#201e1e"/></svg>
